dist/img/svg/ball_icon.svg

<svg xmlns="http://www.w3.org/2000/svg" viewBox="0 0 595.27 595.28"><style>.st0{fill:#000}</style><path class="st0" d="M90.48 475.42l384.95-384.3 28.04 28.08-384.96 384.3z"/><path class="st0" d="M90.48 119.21l28.03-28.09 384.96 384.3-28.04 28.09z"/><path class="st0" d="M359.01 363.64c-54.68 54.67-80.85 130.06-71.82 206.84l39.41-4.64c-7.61-64.63 14.44-128.11 60.47-174.14 47.72-47.73 115.76-69.87 181.91-59.26l6.29-39.18c-78.71-12.64-159.57 13.68-216.26 70.38M287.65 24.36l-39.58 2.86c4.4 60.9-18.09 120.83-61.8 164.54-42.98 43.56-101.23 65.42-163.9 61.59l-2.43 39.62c5.57.34 11.09.51 16.6.51 67.97 0 130.66-25.88 177.89-73.75 51.76-51.77 78.45-122.98 73.22-195.37"/><path class="st0" d="M297.63 555.59c-142.23 0-257.95-115.72-257.95-257.95 0-142.24 115.72-257.96 257.95-257.96 142.24 0 257.96 115.72 257.96 257.96 0 142.23-115.72 257.95-257.96 257.95m0-555.59C133.52 0 0 133.52 0 297.64c0 164.11 133.52 297.64 297.63 297.64 164.12 0 297.64-133.53 297.64-297.64C595.27 133.52 461.75 0 297.63 0"/></svg>

<svg xmlns="http://www.w3.org/2000/svg" viewBox="0 0 595.27 595.28">
	<style type="text/css">
		.st0{fill:#000000;}
	</style>
	<path class="st0" d="M90.48,475.42L475.43,91.12L503.47,119.2L118.51,503.5Z"/>
	<path class="st0" d="M90.48,119.21L118.51,91.12L503.47,475.42L475.43,503.51Z"/>
	<path class="st0" d="M359.01,363.64C304.33,418.31 278.16,493.7 287.19,570.48L326.6,565.84C318.99,501.21 341.04,437.73 387.07,391.7C434.79,343.97 502.83,321.83 568.98,332.44L575.27,293.26C496.56,280.62 415.7,306.94 359.01,363.64"/>
	<path class="st0" d="M287.65,24.36L248.07,27.22C252.47,88.12 229.98,148.05 186.27,191.76C143.29,235.32 85.04,257.18 22.37,253.35L19.94,292.97C25.51,293.31 31.03,293.48 36.54,293.48C104.51,293.48 167.2,267.6 214.43,219.73C266.19,167.96 292.88,96.75 287.65,24.36"/>
	<path class="st0" d="M297.63,555.59C155.4,555.59 39.68,439.87 39.68,297.64C39.68,155.4 155.4,39.68 297.63,39.68C439.87,39.68 555.59,155.4 555.59,297.64C555.59,439.87 439.87,555.59 297.63,555.59M297.63,0C133.52,0 0,133.52 0,297.64C0,461.75 133.52,595.28 297.63,595.28C461.75,595.28 595.27,461.75 595.27,297.64C595.27,133.52 461.75,0 297.63,0"/>
</svg>
